X: 1844
T: Rolling
B: australian traditional tunes wiki
M:2/4
L:1/16
Q: 1/4=100
K:G
V:1 
|:"G"B2d2 d2dd|e2d2d4|e2d2 g2d2|e2d2d4|"D"d2e2 f2e2|1
d2c2 B2A2|"G"G4-G4-|G4-G2dd:|2d2e2 fa3|"G"g4-g4-|g3d e2f2||
"G"g2gg g2g2|a2g2 f2e2|d2g2-g4-|g4d3d|
"D"c2f2-f4|f2e2 d2c2|B2A2-A4|A4d2dd|
"G"B2dd d2d2|e2d2d4|e2dd g2d2|e2d2d4|
"D"d2e2 f2e2|d2c2 BA3|"G"G4-G4-|G4z4||
% abcbook-tune_id 6342d53a23d0d643df2c4ce7


% abcbook-boost 0
% abcbook-tablature 
% abcbook-transpose 
% abcbook-lastupdated 1665324387387
% abcbook-soundfonts 
% abcbook-repeats 1
% NFF Book 2007

